v2/src/assets/icones/icon__tshirt.svg

<svg width="48" height="39" viewBox="0 0 48 39" fill="none" xmlns="http://www.w3.org/2000/svg">
<path d="M46.9861 7.65759L32.5357 0.495483C31.0439 2.55876 27.7412 3.99861 23.8892 3.99861C20.0373 3.99861 16.7345 2.55876 15.2428 0.495483L0.792361 7.65759C0.206033 7.95447 -0.031467 8.66697 0.257986 9.2533L4.5033 17.7513C4.80017 18.3377 5.51267 18.5752 6.099 18.2857L10.2998 16.2299C11.0865 15.8439 12.0068 16.4154 12.0068 17.2986V36.1205C12.0068 37.4342 13.0681 38.4955 14.3818 38.4955H33.3818C34.6955 38.4955 35.7568 37.4342 35.7568 36.1205V17.2912C35.7568 16.4154 36.6771 15.8365 37.4638 16.2224L41.6646 18.2783C42.251 18.5752 42.9635 18.3377 43.2603 17.7439L47.5131 9.2533C47.8099 8.66697 47.5724 7.94705 46.9861 7.65759V7.65759Z" fill="black"/>
</svg>

<?xml version="1.0" encoding="utf-8"?>
<!-- Generator: Adobe Illustrator 26.3.1, SVG Export Plug-In . SVG Version: 6.00 Build 0)  -->
<svg version="1.1" id="Camada_1" xmlns="http://www.w3.org/2000/svg" xmlns:xlink="http://www.w3.org/1999/xlink" x="0px" y="0px"
	 viewBox="0 0 48 39" style="enable-background:new 0 0 48 39;" xml:space="preserve">
<style type="text/css">
	.st0{fill:#391741;}
</style>
<path class="st0" d="M47,7.7L32.5,0.5C31,2.6,27.7,4,23.9,4c-3.9,0-7.2-1.4-8.6-3.5L0.8,7.7C0.2,8,0,8.7,0.3,9.3l4.2,8.5
	c0.3,0.6,1,0.8,1.6,0.5l4.2-2.1c0.8-0.4,1.7,0.2,1.7,1.1v18.8c0,1.3,1.1,2.4,2.4,2.4h19c1.3,0,2.4-1.1,2.4-2.4V17.3
	c0-0.9,0.9-1.5,1.7-1.1l4.2,2.1c0.6,0.3,1.3,0.1,1.6-0.5l4.3-8.5C47.8,8.7,47.6,7.9,47,7.7L47,7.7z"/>
</svg>
